X:1
T:3. Ronde
C:Tielman Susato
S:Tileman Susato: Danserye (1551)
R:Ronde
M:4/2
L:1/2
K:Ddor
AA/G/ F/E/F|F/G/A/F/GE-|E/F/G/E/FD-|D/E/F/D/EA,|A>G F/E/F|F/G/A/F/GE|
E/F/G/E/FE/D/|^C/B,/D/C/DD::AAF/D/E/F/|G/E/F/G/AA|G/A/B/A/ G/F/E/D/|C/B,/D/^C/D2:|
